src/Components/Landing/assets/filler.svg

<svg width="432" height="478" fill="none" xmlns="http://www.w3.org/2000/svg"><path d="M232.5 59.31L289.5 0 344 59.31l59 60.19-60.5 64-53 55.5-60-61.947L176 119.5l56.5-60.19zM262 417.559L318.5 358l54.5 59.559L432 478H205l57-60.441zM81 223.879L159.5 140l76.588 83.879L319 309l-75.5 81.393-84 87.607-84.317-87.607L0 309l81-85.121z" fill="#404040"/></svg>

<svg width="432" height="478" viewBox="0 0 432 478" fill="none" xmlns="http://www.w3.org/2000/svg">
<path d="M232.5 59.3107L289.5 0L344 59.3107L403 119.5L342.5 183.5L289.5 239L229.5 177.053L176 119.5L232.5 59.3107Z" fill="#404040"/>
<path d="M262 417.559L318.5 358L373 417.559L432 478H373H318.5H258.5H205L262 417.559Z" fill="#404040"/>
<path d="M81 223.879L159.5 140L236.088 223.879L319 309L243.5 390.393L159.5 478L75.1828 390.393L0 309L81 223.879Z" fill="#404040"/>
</svg>
